symbols/web/phone_iphone/materialsymbolssharp/phone_iphone_wght700fill1_40px.svg

<svg xmlns="http://www.w3.org/2000/svg" height="40" width="40"><path d="M20 34.333q.583 0 .979-.395.396-.396.396-.98 0-.583-.396-.979T20 31.583q-.583 0-.979.396t-.396.979q0 .584.396.98.396.395.979.395ZM7.25 39.417V.583h25.5v38.834Zm4.375-11.334h16.75V9.125h-16.75Z"/></svg>

<svg xmlns="http://www.w3.org/2000/svg" height="40" width="40"><path d="M20 34.333Q20.583 34.333 20.979 33.938Q21.375 33.542 21.375 32.958Q21.375 32.375 20.979 31.979Q20.583 31.583 20 31.583Q19.417 31.583 19.021 31.979Q18.625 32.375 18.625 32.958Q18.625 33.542 19.021 33.938Q19.417 34.333 20 34.333ZM7.25 39.417V0.583H32.75V39.417ZM11.625 28.083H28.375V9.125H11.625Z"/></svg>
